fa/svgs/regular/hourglass.svg

<svg xmlns="http://www.w3.org/2000/svg" viewBox="0 0 384 512"><!--! Font Awesome Free 6.1.1 by @fontawesome - https://fontawesome.com License - https://fontawesome.com/license/free (Icons: CC BY 4.0, Fonts: SIL OFL 1.1, Code: MIT License) Copyright 2022 Fonticons, Inc.--><path d="M0 24C0 10.75 10.75 0 24 0h336c13.3 0 24 10.75 24 24s-10.7 24-24 24h-8v18.98c0 40.32-16.9 78.12-44.5 107.52L225.9 256l81.6 81.5C335.1 366 352 404.7 352 445v19h8c13.3 0 24 10.7 24 24s-10.7 24-24 24H24c-13.25 0-24-10.7-24-24s10.75-24 24-24h8v-19c0-40.3 16.01-79 44.52-107.5L158.1 256l-81.58-81.5C48.01 145.1 32 107.3 32 66.98V48h-8C10.75 48 0 37.25 0 24zm99.78 360H284.2c-3.2-4.4-6.8-8.6-10.7-12.5L192 289.9l-81.5 81.6c-3.9 3.9-8.4 8.1-10.72 12.5zM284.2 128c11.9-17.6 19.8-38.97 19.8-61.02V48H80v18.98c0 22.05 7 43.42 19.78 61.02H284.2z"/></svg>

<svg xmlns="http://www.w3.org/2000/svg" viewBox="0 0 384 512"><!--! Font Awesome Free 6.2.1 by @fontawesome - https://fontawesome.com License - https://fontawesome.com/license/free (Icons: CC BY 4.0, Fonts: SIL OFL 1.1, Code: MIT License) Copyright 2022 Fonticons, Inc. --><path d="M360 0C373.3 0 384 10.75 384 24C384 37.25 373.3 48 360 48H352V66.98C352 107.3 335.1 145.1 307.5 174.5L225.9 256L307.5 337.5C335.1 366 352 404.7 352 445V464H360C373.3 464 384 474.7 384 488C384 501.3 373.3 512 360 512H24C10.75 512 0 501.3 0 488C0 474.7 10.75 464 24 464H32V445C32 404.7 48.01 366 76.52 337.5L158.1 256L76.52 174.5C48.01 145.1 32 107.3 32 66.98V48H24C10.75 48 0 37.25 0 24C0 10.75 10.75 0 24 0L360 0zM192 289.9L110.5 371.5C90.96 390.1 80 417.4 80 445V464H304V445C304 417.4 293 390.1 273.5 371.5L192 289.9zM192 222.1L273.5 140.5C293 121 304 94.56 304 66.98V47.1H80V66.98C80 94.56 90.96 121 110.5 140.5L192 222.1z"/></svg>
